X:102
T:Whiskey before Breakfast
C: Traditional
M:4/4
L:1/8
R:Reel
K:D
Q:120
|: "D"DEFG A2A2 | ABAG FE D2|"G"G2BG F2"D"AF | "A"EFED CB,A,2 |
|   "D"DEFG A2A2 | ABAG FE D2 | "G"GBAG "D"FAGF |1 "A"EDCE "D"D2DB, :|[2 "A"EDEF "D"D2 dB |]
|: "D"A2 B2 d2dd | ABde fedB | "Em"e2ee e2 ef | "A"gfed cABc |
| "D"d2 fd "A"c2ec | "G"BcdB "D"AFED | "G"GBAG "D"FAGF|[1 "A"EDCE "D"D2dB :|[2 "A"EDCE "D"D4 |]

